X: 88
T: No_184.krn
N: Derived from No_184.krn
%%abc-version 2.0
%%abcx-abcm2ps-target-version 5.9.1 (29 Sep 2008)
%%abc-creator hum2abc beta
%%abcx-conversion-date 2019/03/15 08:29:13
%%humdrum-veritas 3986355937
%%humdrum-veritas-data 533919557
%%linebreak <none>
%%barnumbers 0
L: 1/8
M: 2/4
%%staves {1 2}
V: 1 clef=bass
V: 2 clef=bass
K: D
[V:1] [K:clef=bass][M:2/4]D2DC | 
[V:2] [K:clef=bass][M:2/4]z G,, (3!accent!G,, z G,, | 
[V:1] B,3F, | 
[V:2] (3!accent!G,, z G,, (3!accent!G,, z G,, | 
[V:1] B,2B,G, | 
[V:2] z4 | 
[V:1] F,2D,D, | 
[V:2] z4 | 
[V:1] D,2D,G, | 
[V:2] z4 | 
[V:1] G,2B,G, | 
[V:2] z4 | 
[V:1] F,2D,D, | 
[V:2] z4 | 
[V:1] D,2B,G, | 
[V:2] z4 | 
[V:1] B,2B,G, | 
[V:2] z4 | 
[V:1] F,2D,2 | 
[V:2] z4 | 
[V:1] G,2B,G, | 
[V:2] z4 | 
[V:1] F,2D,D, | 
[V:2] z4 | 
[V:1] D,4 |]  
[V:2] z4 |]  



